X: 294	% 82
T: Four And Twenty
S: Viola Ruth "Pioneer Western Folk Tunes" 1948 p.29 #4
R: polka, march
Z: 2019 John Chambers <jc:trillian.mit.edu>
M: 2/4
L: 1/16
K: C
V: 1 name="82"
|:\
c2c2 cGEG | A2A2 A4 | B2B2 BGAB | c3e G4 |\
c2c2 cGEG | A2A2 A4 | B2B2 BGAB | cBcd c4 :|
|:\
e4 d3G | A2F2 F4 | d4 B3G | A2E2 E4 |\
A4 G3E | F2A2 d4 | B2G2A2B2 | cBcd c4 :|
